packages/components/Atoms/Icon/assets/img/rpl_icon_pdf.svg

<svg width="20" height="20" viewBox="0 0 20 20" overflow="visible" xmlns="http://www.w3.org/2000/svg">
  <path fill-rule="evenodd" clip-rule="evenodd" d="M10 5V2.824L12.176 5H10ZM10.003 0H1C0.447 0 0 0.447 0 1V19C0 19.553 0.447 20 1 20H14C14.553 20 15 19.553 15 19V16H13V18H2V2H8V6C8 6.553 8.447 7 9 7H13V9H15V4.997L10.003 0Z"
    fill="inherit" />
  <path fill-rule="evenodd" clip-rule="evenodd" d="M9.86328 11.1025H9.17027V12.1105H9.86328C10.1993 12.1105 10.3953 11.8655 10.3953 11.6065C10.3953 11.3475 10.1993 11.1025 9.86328 11.1025ZM9.92027 13.2095H9.17027V14.9895H7.94427V10.0025H9.92027C11.0263 10.0025 11.6213 10.7875 11.6213 11.6065C11.6213 12.4255 11.0263 13.2095 9.92027 13.2095Z"
    fill="inherit" />
  <path fill-rule="evenodd" clip-rule="evenodd" d="M14.5469 11.375C14.4349 11.207 14.2669 11.095 13.9579 11.095H13.4189V13.896H13.9579C14.2669 13.896 14.4349 13.784 14.5469 13.616C14.6449 13.477 14.6799 13.344 14.6799 12.496C14.6799 11.655 14.6449 11.516 14.5469 11.375ZM15.3869 14.499C15.0439 14.842 14.5609 14.989 14.0419 14.989H12.1929V10.003H14.0419C14.5609 10.003 15.0439 10.149 15.3869 10.493C15.9689 11.074 15.9049 11.712 15.9049 12.496C15.9049 13.28 15.9689 13.918 15.3869 14.499Z"
    fill="inherit" />
  <path fill-rule="evenodd" clip-rule="evenodd" d="M17.8359 11.0947V11.9707H19.6859V13.0637H17.8359V14.9897H16.6099V10.0027H19.9999V11.0947H17.8359Z"
    fill="inherit" />
</svg>

<svg width="20" height="20" overflow="visible" xmlns="http://www.w3.org/2000/svg"><path fill-rule="evenodd" clip-rule="evenodd" d="M10 5V2.824L12.176 5H10zm.003-5H1a1 1 0 00-1 1v18a1 1 0 001 1h13a1 1 0 001-1v-3h-2v2H2V2h6v4a1 1 0 001 1h4v2h2V4.997L10.003 0z" fill="inherit"/><path fill-rule="evenodd" clip-rule="evenodd" d="M9.863 11.102H9.17v1.008h.693c.336 0 .532-.244.532-.503 0-.26-.196-.505-.532-.505zm.057 2.107h-.75v1.78H7.944v-4.987H9.92c1.106 0 1.701.785 1.701 1.604 0 .82-.595 1.604-1.7 1.604zM14.547 11.375c-.112-.168-.28-.28-.59-.28h-.538v2.801h.539c.309 0 .477-.112.589-.28.098-.139.133-.272.133-1.12 0-.841-.035-.98-.133-1.121zm.84 3.124c-.343.343-.826.49-1.345.49h-1.85v-4.986h1.85c.519 0 1.002.146 1.345.49.582.581.518 1.219.518 2.003s.064 1.422-.518 2.003zM17.836 11.095v.876h1.85v1.093h-1.85v1.926H16.61v-4.987H20v1.092h-2.164z" fill="inherit"/></svg>
